app/themes/uggwc_pro/assets/images/thema/Biologie.svg

<svg width="16" height="16" viewBox="0 0 16 16" fill="none" xmlns="http://www.w3.org/2000/svg">
<g clip-path="url(#clip0_111_136)">
<path d="M5 10H5.375V10.5C5.375 10.7762 5.59875 11 5.875 11H7.125C7.40125 11 7.625 10.7762 7.625 10.5V10H8C8.55219 10 9 9.55219 9 9V2C9 1.44781 8.55219 1 8 1V0.5C8 0.22375 7.77625 0 7.5 0H5.5C5.22375 0 5 0.22375 5 0.5V1C4.44781 1 4 1.44781 4 2V9C4 9.55219 4.44781 10 5 10ZM14.5 14H14.4597C15.4137 12.9372 16 11.5375 16 10C16 6.69125 13.3088 4 10 4V6C12.2056 6 14 7.79437 14 10C14 12.2056 12.2056 14 10 14H1.5C0.671562 14 0 14.6716 0 15.5C0 15.7762 0.22375 16 0.5 16H15.5C15.7762 16 16 15.7762 16 15.5C16 14.6716 15.3284 14 14.5 14ZM3.25 13H9.75C9.88813 13 10 12.8881 10 12.75V12.25C10 12.1119 9.88813 12 9.75 12H3.25C3.11188 12 3 12.1119 3 12.25V12.75C3 12.8881 3.11188 13 3.25 13Z" fill="#6E6CFF"/>
</g>
<defs>
<clipPath id="clip0_111_136">
<rect width="16" height="16" fill="white"/>
</clipPath>
</defs>
</svg>

<svg width="16" height="16" fill="none" xmlns="http://www.w3.org/2000/svg"><g clip-path="url(#a)"><path d="M5 10h.375v.5a.5.5 0 0 0 .5.5h1.25a.5.5 0 0 0 .5-.5V10H8a1 1 0 0 0 1-1V2a1 1 0 0 0-1-1V.5a.5.5 0 0 0-.5-.5h-2a.5.5 0 0 0-.5.5V1a1 1 0 0 0-1 1v7a1 1 0 0 0 1 1zm9.5 4h-.04A5.97 5.97 0 0 0 16 10c0-3.309-2.691-6-6-6v2c2.206 0 4 1.794 4 4s-1.794 4-4 4H1.5A1.5 1.5 0 0 0 0 15.5a.5.5 0 0 0 .5.5h15a.5.5 0 0 0 .5-.5 1.5 1.5 0 0 0-1.5-1.5zM3.25 13h6.5a.25.25 0 0 0 .25-.25v-.5a.25.25 0 0 0-.25-.25h-6.5a.25.25 0 0 0-.25.25v.5c0 .138.112.25.25.25z" fill="#6E6CFF"/></g><defs><clipPath id="a"><path fill="#fff" d="M0 0h16v16H0z"/></clipPath></defs></svg>
